icons/battery-charging.svg

<svg xmlns="http://www.w3.org/2000/svg" width="96" height="96"><path d="M12 32v32h64v-4c0-2.1.8-4.2 2.3-5.7 1.5-1.5 3.6-2.3 5.7-2.3v-8c-2.1 0-4.2-.8-5.7-2.3-1.5-1.5-2.3-3.6-2.3-5.7v-4H12zm-8 0v32c0 2.1.8 4.2 2.3 5.7C7.8 71.2 9.9 72 12 72h64c2.1 0 4.2-.8 5.7-2.3 1.5-1.5 2.3-3.6 2.3-5.7v-4c2.1 0 4.2-.8 5.7-2.3 1.5-1.5 2.3-3.6 2.3-5.7v-8c0-2.1-.8-4.2-2.3-5.7-1.5-1.5-3.6-2.3-5.7-2.3v-4c0-2.1-.8-4.2-2.3-5.7-1.5-1.5-3.6-2.3-5.7-2.3H12c-2.1 0-4.2.8-5.7 2.3C4.8 27.8 4 29.9 4 32zm34.3 16H32c-1.1 0-2.1-.4-2.8-1.2-.8-.7-1.2-1.7-1.2-2.8 0-1.1.4-2.1 1.2-2.8.7-.8 1.7-1.2 2.8-1.2h15.1q4.368.08 5.3 2.1 1.024 2.22-2.6 5.7l-.1.2H56c1.1 0 2.1.4 2.8 1.2.8.7 1.2 1.7 1.2 2.8 0 1.1-.4 2.1-1.2 2.8-.7.8-1.7 1.2-2.8 1.2H40.9q-4.368-.08-5.3-2.1-1.024-2.22 2.6-5.7l.1-.2z" fill-rule="evenodd" fill="#454545"/></svg>

<?xml version="1.0" standalone="no"?><!-- Generator: Gravit.io --><svg xmlns="http://www.w3.org/2000/svg" xmlns:xlink="http://www.w3.org/1999/xlink" width="96" height="96"><path d=" M 12 32 L 12 64 L 76 64 L 76 60 C 76 57.9 76.8 55.8 78.3 54.3 C 79.8 52.8 81.9 52 84 52 L 84 44 C 81.9 44 79.8 43.2 78.3 41.7 C 76.8 40.2 76 38.1 76 36 L 76 32 L 12 32 Z  M 4 32 L 4 64 C 4 66.1 4.8 68.2 6.3 69.7 C 7.8 71.2 9.9 72 12 72 L 76 72 C 78.1 72 80.2 71.2 81.7 69.7 C 83.2 68.2 84 66.1 84 64 L 84 60 C 86.1 60 88.2 59.2 89.7 57.7 C 91.2 56.2 92 54.1 92 52 L 92 44 C 92 41.9 91.2 39.8 89.7 38.3 C 88.2 36.8 86.1 36 84 36 L 84 32 C 84 29.9 83.2 27.8 81.7 26.3 C 80.2 24.8 78.1 24 76 24 L 12 24 C 9.9 24 7.8 24.8 6.3 26.3 C 4.8 27.8 4 29.9 4 32 Z  M 38.3 48 L 32 48 C 30.9 48 29.9 47.6 29.2 46.8 C 28.4 46.1 28 45.1 28 44 C 28 42.9 28.4 41.9 29.2 41.2 C 29.9 40.4 30.9 40 32 40 L 47.1 40 Q 51.46777003080415 40.079885391584696 52.4 42.1 Q 53.424474635824865 44.320006056623534 49.8 47.8 L 49.7 48 L 56 48 C 57.1 48 58.1 48.4 58.8 49.2 C 59.6 49.9 60 50.9 60 52 C 60 53.1 59.6 54.1 58.8 54.8 C 58.1 55.6 57.1 56 56 56 L 40.9 56 Q 36.53222996919585 55.920114608415304 35.6 53.9 Q 34.575525364175135 51.679993943376466 38.2 48.2 L 38.3 48 Z " fill-rule="evenodd" fill="#454545" stroke="none"/><mask id="_mask_gvdUpiBnexFF49t5qlLrirM1xdf4bs5d"><path d=" M 12 32 L 12 64 L 76 64 L 76 60 C 76 57.9 76.8 55.8 78.3 54.3 C 79.8 52.8 81.9 52 84 52 L 84 44 C 81.9 44 79.8 43.2 78.3 41.7 C 76.8 40.2 76 38.1 76 36 L 76 32 L 12 32 Z  M 4 32 L 4 64 C 4 66.1 4.8 68.2 6.3 69.7 C 7.8 71.2 9.9 72 12 72 L 76 72 C 78.1 72 80.2 71.2 81.7 69.7 C 83.2 68.2 84 66.1 84 64 L 84 60 C 86.1 60 88.2 59.2 89.7 57.7 C 91.2 56.2 92 54.1 92 52 L 92 44 C 92 41.9 91.2 39.8 89.7 38.3 C 88.2 36.8 86.1 36 84 36 L 84 32 C 84 29.9 83.2 27.8 81.7 26.3 C 80.2 24.8 78.1 24 76 24 L 12 24 C 9.9 24 7.8 24.8 6.3 26.3 C 4.8 27.8 4 29.9 4 32 Z  M 38.3 48 L 32 48 C 30.9 48 29.9 47.6 29.2 46.8 C 28.4 46.1 28 45.1 28 44 C 28 42.9 28.4 41.9 29.2 41.2 C 29.9 40.4 30.9 40 32 40 L 47.1 40 Q 51.46777003080415 40.079885391584696 52.4 42.1 Q 53.424474635824865 44.320006056623534 49.8 47.8 L 49.7 48 L 56 48 C 57.1 48 58.1 48.4 58.8 49.2 C 59.6 49.9 60 50.9 60 52 C 60 53.1 59.6 54.1 58.8 54.8 C 58.1 55.6 57.1 56 56 56 L 40.9 56 Q 36.53222996919585 55.920114608415304 35.6 53.9 Q 34.575525364175135 51.679993943376466 38.2 48.2 L 38.3 48 Z " fill-rule="evenodd" fill="white" stroke="none"/></mask><path d=" M 12 32 L 12 64 L 76 64 L 76 60 C 76 57.9 76.8 55.8 78.3 54.3 C 79.8 52.8 81.9 52 84 52 L 84 44 C 81.9 44 79.8 43.2 78.3 41.7 C 76.8 40.2 76 38.1 76 36 L 76 32 L 12 32 Z  M 4 32 L 4 64 C 4 66.1 4.8 68.2 6.3 69.7 C 7.8 71.2 9.9 72 12 72 L 76 72 C 78.1 72 80.2 71.2 81.7 69.7 C 83.2 68.2 84 66.1 84 64 L 84 60 C 86.1 60 88.2 59.2 89.7 57.7 C 91.2 56.2 92 54.1 92 52 L 92 44 C 92 41.9 91.2 39.8 89.7 38.3 C 88.2 36.8 86.1 36 84 36 L 84 32 C 84 29.9 83.2 27.8 81.7 26.3 C 80.2 24.8 78.1 24 76 24 L 12 24 C 9.9 24 7.8 24.8 6.3 26.3 C 4.8 27.8 4 29.9 4 32 Z  M 38.3 48 L 32 48 C 30.9 48 29.9 47.6 29.2 46.8 C 28.4 46.1 28 45.1 28 44 C 28 42.9 28.4 41.9 29.2 41.2 C 29.9 40.4 30.9 40 32 40 L 47.1 40 Q 51.46777003080415 40.079885391584696 52.4 42.1 Q 53.424474635824865 44.320006056623534 49.8 47.8 L 49.7 48 L 56 48 C 57.1 48 58.1 48.4 58.8 49.2 C 59.6 49.9 60 50.9 60 52 C 60 53.1 59.6 54.1 58.8 54.8 C 58.1 55.6 57.1 56 56 56 L 40.9 56 Q 36.53222996919585 55.920114608415304 35.6 53.9 Q 34.575525364175135 51.679993943376466 38.2 48.2 L 38.3 48 Z " fill-rule="evenodd" fill="none" stroke="none" stroke-width="16" mask="url(#_mask_gvdUpiBnexFF49t5qlLrirM1xdf4bs5d)"/></svg>
